Simply-Red-Circles/scalable/apps/icecat.svg

<?xml version="1.0" encoding="UTF-8" standalone="no"?><svg xmlns:dc="http://purl.org/dc/elements/1.1/" xmlns:cc="http://creativecommons.org/ns#" xmlns:rdf="http://www.w3.org/1999/02/22-rdf-syntax-ns#" xmlns="http://www.w3.org/2000/svg" width="48" height="48" viewBox="0 0 12.7 12.7"><metadata><rdf:RDF><cc:Work><dc:format>image/svg+xml</dc:format><dc:type rdf:resource="http://purl.org/dc/dcmitype/StillImage"/><dc:title/></cc:Work></rdf:RDF></metadata><path d="M6.34.07a6.29 6.29 0 0 0-6.28 6.3 6.29 6.29 0 0 0 6.29 6.28 6.29 6.29 0 0 0 6.28-6.29A6.29 6.29 0 0 0 6.34.07zm-.01.94a5.4 5.4 0 0 1 5.4 5.4 5.4 5.4 0 0 1-5.4 5.41 5.4 5.4 0 0 1-5.41-5.4A5.4 5.4 0 0 1 6.32 1z" fill="#a02c2c"/><path d="M5.2 2.19c-1.97 0-2.9 1.54-3.24 3.62.86-1.32 1.35-1.5 1.6-1.6.2-.06.36-.09.5-.08.91.03 1.03 1.18 1.25 2.42.14.52.47 1.61 1.08 2.12.16.13.36.33.56.25.17-.07.2-.35.07-.65-.11-.36-.32-.68-.44-1.06-.24-.8-.39-1.02-.13-1.78.14-.41.44-.79.58-.61l.28.34c.23.45.62.88 1.1 1.1.27.13.42.16.7.03.23-.15.08-.7.32-1.19.19-.37.36-.58.35-.96.07-.03.1-.08.13-.17.01-.04.04-.1.1-.17.21-.17.34-.35.29-.65l-1.26.32h-.47l-.18-.62c-.1-.13-.16-.3-.31-.33l-.21.6c-.7-.3-1.4-.9-2.67-.93zm2.86 2.89c.16.06.3.04.48.2a.83.83 0 0 0 0 .28s.02-.06-.48-.48zm.74.96l.27.02a.31.31 0 0 1-.2.11l-.25-.03.03-.03zm-5.77.65a.36.36 0 0 0-.18.06c-.28.2-.25.5-.23.85a4.14 4.14 0 0 0 4.13 3.58c1.1-.03 2.17-.51 2.27-1.56.02-.24 0-.49-.05-.73-.34.75-1.03 1.49-2.01 1.32-2.17-.36-2.6-1.38-3.5-3.18-.12-.19-.26-.34-.43-.34z" fill="#2c89a0" opacity=".75"/></svg>

<?xml version="1.0" encoding="UTF-8" standalone="no"?>
<svg
   xmlns:dc="http://purl.org/dc/elements/1.1/"
   xmlns:cc="http://creativecommons.org/ns#"
   xmlns:rdf="http://www.w3.org/1999/02/22-rdf-syntax-ns#"
   xmlns:svg="http://www.w3.org/2000/svg"
   xmlns="http://www.w3.org/2000/svg"
   xmlns:sodipodi="http://sodipodi.sourceforge.net/DTD/sodipodi-0.dtd"
   xmlns:inkscape="http://www.inkscape.org/namespaces/inkscape"
   width="48"
   height="48"
   viewBox="0 0 12.7 12.7"
   version="1.1"
   id="svg8"
   sodipodi:docname="icecat.svg"
   inkscape:version="0.92.4 (5da689c313, 2019-01-14)">
  <defs
     id="defs12" />
  <sodipodi:namedview
     pagecolor="#ffffff"
     bordercolor="#666666"
     borderopacity="1"
     objecttolerance="10"
     gridtolerance="10"
     guidetolerance="10"
     inkscape:pageopacity="0"
     inkscape:pageshadow="2"
     inkscape:window-width="1087"
     inkscape:window-height="480"
     id="namedview10"
     showgrid="false"
     inkscape:zoom="4.9166667"
     inkscape:cx="2.1355932"
     inkscape:cy="24"
     inkscape:window-x="0"
     inkscape:window-y="25"
     inkscape:window-maximized="0"
     inkscape:current-layer="svg8" />
  <metadata
     id="metadata2">
    <rdf:RDF>
      <cc:Work>
        <dc:format>image/svg+xml</dc:format>
        <dc:type
           rdf:resource="http://purl.org/dc/dcmitype/StillImage" />
        <dc:title></dc:title>
      </cc:Work>
    </rdf:RDF>
  </metadata>
  <path
     d="M 6.34,0.07 A 6.29,6.29 0 0 0 0.06,6.37 6.29,6.29 0 0 0 6.35,12.65 6.29,6.29 0 0 0 12.63,6.36 6.29,6.29 0 0 0 6.34,0.07 Z M 6.33,1.01 a 5.4,5.4 0 0 1 5.4,5.4 5.4,5.4 0 0 1 -5.4,5.41 A 5.4,5.4 0 0 1 0.92,6.42 5.4,5.4 0 0 1 6.32,1 Z"
     id="path4"
     inkscape:connector-curvature="0"
     style="fill:#a02c2c" />
  <path
     d="M 5.2,2.19 C 3.23,2.19 2.3,3.73 1.96,5.81 2.82,4.49 3.31,4.31 3.56,4.21 3.76,4.15 3.92,4.12 4.06,4.13 4.97,4.16 5.09,5.31 5.31,6.55 5.45,7.07 5.78,8.16 6.39,8.67 6.55,8.8 6.75,9 6.95,8.92 7.12,8.85 7.15,8.57 7.02,8.27 6.91,7.91 6.7,7.59 6.58,7.21 6.34,6.41 6.19,6.19 6.45,5.43 6.59,5.02 6.89,4.64 7.03,4.82 l 0.28,0.34 c 0.23,0.45 0.62,0.88 1.1,1.1 0.27,0.13 0.42,0.16 0.7,0.03 C 9.34,6.14 9.19,5.59 9.43,5.1 9.62,4.73 9.79,4.52 9.78,4.14 9.85,4.11 9.88,4.06 9.91,3.97 9.92,3.93 9.95,3.87 10.01,3.8 10.22,3.63 10.35,3.45 10.3,3.15 L 9.04,3.47 H 8.57 L 8.39,2.85 C 8.29,2.72 8.23,2.55 8.08,2.52 L 7.87,3.12 C 7.17,2.82 6.47,2.22 5.2,2.19 Z m 2.86,2.89 c 0.16,0.06 0.3,0.04 0.48,0.2 a 0.83,0.83 0 0 0 0,0.28 c 0,0 0.02,-0.06 -0.48,-0.48 z M 8.8,6.04 9.07,6.06 C 9.01,6.13 8.94,6.16 8.87,6.17 L 8.62,6.14 8.65,6.11 Z M 3.03,6.69 A 0.36,0.36 0 0 0 2.85,6.75 C 2.57,6.95 2.6,7.25 2.62,7.6 a 4.14,4.14 0 0 0 4.13,3.58 C 7.85,11.15 8.92,10.67 9.02,9.62 9.04,9.38 9.02,9.13 8.97,8.89 8.63,9.64 7.94,10.38 6.96,10.21 4.79,9.85 4.36,8.83 3.46,7.03 3.34,6.84 3.2,6.69 3.03,6.69 Z"
     id="path6"
     inkscape:connector-curvature="0"
     style="opacity:0.75;fill:#2c89a0" />
</svg>
